X: 1
T: Faroe Rum
R: Reel
M: 4/4
L: 1/8
K: D
|:AA2F ABdB|AFFD E2FG|AA2F ABde | [1 fafe d2 d2:| [2 fafe d3 f ||
|:eAcA eAcA|ABde f2af|eAcA eAcA | [1 egfe d3 f :| [2 egfe d2d2 ||